X:105
T: Tripping to the Well
S: "Treoir" (source: J. McKenna)
Z: B.Black
M: 2/4
L: 1/8
R: polka
K: G
G>A B>G | E>G E>D | D/E/G/A/ B>d | B>A AB/A/ |
G>A B>G | E>G E>D | BA/F/ D/E/F/G/ | AB/A/ G2 :|
d>B G>A | B>G E>D | d>B G>A | B>A A2 |
d/e/d/B/ G>A | B>G E>D | BA/F/ D/E/F/G/ | AB/A/ G2 :|
